swiss/communes/0069.svg

<?xml version="1.0" encoding="UTF-8" standalone="no"?>
<!-- Created with Inkscape (http://www.inkscape.org/) -->
<svg
   xmlns:svg="http://www.w3.org/2000/svg"
   xmlns="http://www.w3.org/2000/svg"
   version="1.0"
   width="215.6507"
   height="252.60123"
   id="svg2780">
  <defs
     id="defs2782" />
  <g
     transform="translate(-17.704646,-804.53568)"
     id="layer1">
    <path
       d="M 18.704646,805.53568 L 22.5892,968.71783 C 25.363874,1085.2766 225.6961,1085.2766 228.47079,968.71783 L 232.35534,805.53568 L 18.704646,805.53568 z "
       style="fill:#fcdc27;fill-opacity:1;fill-rule:evenodd;stroke:#000000;stroke-width:2;stroke-linecap:butt;stroke-miterlimit:4;stroke-dashoffset:0;stroke-opacity:1"
       id="path3282" />
    <path
       d="M 133.66542,853.20035 L 128.55555,848.09048 L 135.07504,841.57101 L 127.49832,833.99429 L 112.52113,848.97149 L 128.90795,865.35832 L 137.36568,856.90061 L 143.00415,862.53908 L 134.54642,870.99679 L 142.12312,878.57349 L 176.30637,844.39024 L 168.72967,836.81355 L 160.27196,845.27126 L 154.63348,839.6328 L 163.0912,831.17508 L 146.70437,814.78825 L 131.72717,829.76544 L 139.30388,837.34215 L 145.82336,830.82268 L 150.93324,835.93254 L 133.66542,853.20035 z "
       style="fill:#2163c5;fill-opacity:1;fill-rule:evenodd;stroke:#000000;stroke-width:1px;stroke-linecap:butt;stroke-linejoin:miter;stroke-opacity:1"
       id="path4993" />
    <path
       d="M 416.89106 1.0864651 A 7.6002254 4.7345667 0 1 1  401.69061,1.0864651 A 7.6002254 4.7345667 0 1 1  416.89106 1.0864651 z"
       transform="matrix(0.7071068,0.7071068,-0.7071068,0.7071068,-91.6339,545.3114)"
       style="opacity:1;color:#000000;fill:#2163c5;fill-opacity:1;fill-rule:evenodd;stroke:#000000;stroke-width:0.99921256;stroke-linecap:butt;stroke-linejoin:miter;marker:none;marker-start:none;marker-mid:none;marker-end:none;stroke-miterlimit:4;stroke-dasharray:none;stroke-dashoffset:0;stroke-opacity:1;visibility:visible;display:inline;overflow:visible;enable-background:accumulate"
       id="path5009" />
    <path
       d="M 40.453747,935.98142 L 96.520992,935.98142 L 96.520992,992.04865 L 40.453731,992.04866 L 40.453747,935.98142 z M 82.386422,950.09388 C 79.128088,946.83555 73.884672,946.79579 70.674966,950.0055 C 69.5171,951.16336 68.800991,952.59394 68.487354,954.09346 C 68.174191,952.59361 67.458542,951.1643 66.299741,950.00549 C 63.09004,946.79579 57.846618,946.83555 54.588285,950.09388 C 51.329951,953.35222 51.268136,958.6177 54.477835,961.8274 C 55.635703,962.98527 57.066279,963.70138 58.565755,964.01506 C 57.065911,964.32822 55.636608,965.04385 54.477801,966.20266 C 51.268102,969.41236 51.307891,974.65575 54.566225,977.91408 C 57.824559,981.17241 63.090044,981.2343 66.299743,978.0246 C 67.45763,976.86671 68.17371,975.43616 68.487347,973.93665 C 68.80102,975.43612 69.517135,976.8667 70.675001,978.02457 C 73.8847,981.23427 79.150185,981.17245 82.408519,977.91412 C 85.666853,974.65578 85.706606,969.41236 82.496907,966.20266 C 81.338115,965.04387 79.90879,964.32821 78.408946,964.01505 C 79.908458,963.70141 81.339041,962.9853 82.496907,961.82744 C 85.706606,958.61774 85.644749,953.35222 82.386422,950.09388 z "
       style="color:#000000;fill:#2163c5;fill-opacity:1;fill-rule:evenodd;stroke:#000000;stroke-width:1.00000012px;stroke-linecap:butt;stroke-linejoin:miter;marker:none;marker-start:none;marker-mid:none;marker-end:none;stroke-miterlimit:4;stroke-dashoffset:0;stroke-opacity:1;visibility:visible;display:inline;overflow:visible;enable-background:accumulate"
       id="rect6953" />
    <rect
       width="25.666334"
       height="9.2199459"
       rx="4.609973"
       ry="4.609973"
       x="717.25629"
       y="591.26923"
       transform="matrix(0.7071068,0.7071068,-0.7071068,0.7071068,0,0)"
       style="opacity:1;color:#000000;fill:#2163c5;fill-opacity:1;fill-rule:evenodd;stroke:#000000;stroke-width:1.00000012px;stroke-linecap:butt;stroke-linejoin:miter;marker:none;marker-start:none;marker-mid:none;marker-end:none;stroke-miterlimit:4;stroke-dasharray:none;stroke-dashoffset:0;stroke-opacity:1;visibility:visible;display:inline;overflow:visible;enable-background:accumulate"
       id="rect5980" />
    <rect
       width="44.106228"
       height="44.106228"
       x="46.434235"
       y="941.96191"
       style="opacity:1;color:#000000;fill:none;fill-opacity:1;fill-rule:evenodd;stroke:#000000;stroke-width:1.00000012px;stroke-linecap:butt;stroke-linejoin:miter;marker:none;marker-start:none;marker-mid:none;marker-end:none;stroke-miterlimit:4;stroke-dasharray:none;stroke-dashoffset:0;stroke-opacity:1;visibility:visible;display:inline;overflow:visible;enable-background:accumulate"
       id="rect6955" />
    <path
       d="M 120.85605 227.34891 A 9.2199459 4.9837542 0 1 1  102.41615,227.34891 A 9.2199459 4.9837542 0 1 1  120.85605 227.34891 z"
       transform="matrix(0.7357732,-0.7357732,0.8662058,0.8662058,-182.74242,877.0629)"
       style="color:#000000;fill:#2163c5;fill-opacity:1;fill-rule:evenodd;stroke:#000000;stroke-width:0.88503486;stroke-linecap:butt;stroke-linejoin:miter;marker:none;marker-start:none;marker-mid:none;marker-end:none;stroke-miterlimit:4;stroke-dasharray:none;stroke-dashoffset:0;stroke-opacity:1;visibility:visible;display:inline;overflow:visible;enable-background:accumulate"
       id="path6959" />
    <path
       d="M 120.85605 227.34891 A 9.2199459 4.9837542 0 1 1  102.41615,227.34891 A 9.2199459 4.9837542 0 1 1  120.85605 227.34891 z"
       transform="matrix(0.7357732,-0.7357732,0.8662058,0.8662058,-238.42236,821.38296)"
       style="color:#000000;fill:#2163c5;fill-opacity:1;fill-rule:evenodd;stroke:#000000;stroke-width:0.88503486;stroke-linecap:butt;stroke-linejoin:miter;marker:none;marker-start:none;marker-mid:none;marker-end:none;stroke-miterlimit:4;stroke-dasharray:none;stroke-dashoffset:0;stroke-opacity:1;visibility:visible;display:inline;overflow:visible;enable-background:accumulate"
       id="path6961" />
    <path
       d="M 120.85605 227.34891 A 9.2199459 4.9837542 0 1 1  102.41615,227.34891 A 9.2199459 4.9837542 0 1 1  120.85605 227.34891 z"
       transform="matrix(0.7357732,0.7357732,-0.8662058,0.8662058,155.43953,712.78524)"
       style="color:#000000;fill:#2163c5;fill-opacity:1;fill-rule:evenodd;stroke:#000000;stroke-width:0.88503486;stroke-linecap:butt;stroke-linejoin:miter;marker:none;marker-start:none;marker-mid:none;marker-end:none;stroke-miterlimit:4;stroke-dasharray:none;stroke-dashoffset:0;stroke-opacity:1;visibility:visible;display:inline;overflow:visible;enable-background:accumulate"
       id="path6973" />
    <path
       d="M 167.85762,934.08373 C 159.31733,943.46328 136.14103,972.21759 139.01383,973.13918 C 141.88663,974.06076 161.56002,950.06675 167.85762,934.08373 z "
       style="opacity:1;color:#000000;fill:#2163c5;fill-opacity:1;fill-rule:evenodd;stroke:#000000;stroke-width:1.00000012px;stroke-linecap:butt;stroke-linejoin:round;marker:none;marker-start:none;marker-mid:none;marker-end:none;stroke-miterlimit:4;stroke-dasharray:none;stroke-dashoffset:0;stroke-opacity:1;visibility:visible;display:inline;overflow:visible;enable-background:accumulate"
       id="path8004" />
    <path
       d="M 152.2537,161.81254 C 124.41247,139.10104 105.14621,136.20237 94.098596,108.97222 C 92.66866,105.44771 98.498615,101.50302 101.10129,101.62753 C 114.16654,102.25254 137.80081,93.784296 137.80081,93.784296 L 167.30304,133.28621 L 152.2537,161.81254 z "
       transform="translate(0,804.33069)"
       style="fill:#dcbc8c;fill-opacity:1;fill-rule:evenodd;stroke:#000000;stroke-width:1px;stroke-linecap:butt;stroke-linejoin:miter;stroke-opacity:1"
       id="path7009" />
    <rect
       width="16.695578"
       height="135.80731"
       x="721.7417"
       y="455.46191"
       transform="matrix(0.7071068,0.7071068,-0.7071068,0.7071068,0,0)"
       style="opacity:1;color:#000000;fill:#2163c5;fill-opacity:1;fill-rule:evenodd;stroke:#000000;stroke-width:0.99921256;stroke-linecap:butt;stroke-linejoin:miter;marker:none;marker-start:none;marker-mid:none;marker-end:none;stroke-miterlimit:4;stroke-dasharray:none;stroke-dashoffset:0;stroke-opacity:1;visibility:visible;display:inline;overflow:visible;enable-background:accumulate"
       id="rect5007" />
    <path
       d="M 101.29479,905.83981 C 98.429142,904.84305 91.281265,910.52994 94.983276,913.84405 C 101.0985,919.31851 105.28643,921.82378 109.89177,924.77807 C 112.3061,926.32684 115.99688,925.15185 114.75093,920.91566 L 101.29479,905.83981 z "
       style="opacity:1;color:#000000;fill:#dcbc8c;fill-opacity:1;fill-rule:evenodd;stroke:#000000;stroke-width:1px;stroke-linecap:butt;stroke-linejoin:miter;marker:none;marker-start:none;marker-mid:none;marker-end:none;stroke-miterlimit:4;stroke-dasharray:none;stroke-dashoffset:0;stroke-opacity:1;visibility:visible;display:inline;overflow:visible;enable-background:accumulate"
       id="path7988" />
    <path
       d="M 106.52774,896.74446 C 102.54074,894.75095 97.836153,901.48602 100.67184,905.34143 C 106.59326,913.39224 106.41484,914.96013 115.24931,921.66322 C 117.89223,923.66852 124.09548,921.91241 119.98388,916.55487 L 106.52774,896.74446 z "
       style="opacity:1;color:#000000;fill:#dcbc8c;fill-opacity:1;fill-rule:evenodd;stroke:#000000;stroke-width:1px;stroke-linecap:butt;stroke-linejoin:miter;marker:none;marker-start:none;marker-mid:none;marker-end:none;stroke-miterlimit:4;stroke-dasharray:none;stroke-dashoffset:0;stroke-opacity:1;visibility:visible;display:inline;overflow:visible;enable-background:accumulate"
       id="path7986" />
    <path
       d="M 114.00338,84.564351 C 110.51475,82.94463 104.70201,88.449266 106.15397,92.164576 C 110.39016,103.00424 112.27076,106.64244 121.10523,113.34553 C 123.74815,115.35083 129.32843,111.60122 125.21683,106.24368 L 114.00338,84.564351 z "
       transform="translate(0,804.33069)"
       style="opacity:1;color:#000000;fill:#dcbc8c;fill-opacity:1;fill-rule:evenodd;stroke:#000000;stroke-width:1px;stroke-linecap:butt;stroke-linejoin:miter;marker:none;marker-start:none;marker-mid:none;marker-end:none;stroke-miterlimit:4;stroke-dasharray:none;stroke-dashoffset:0;stroke-opacity:1;visibility:visible;display:inline;overflow:visible;enable-background:accumulate"
       id="path7984" />
    <path
       d="M 137.42703,84.938132 C 122.38232,71.232807 112.34791,76.388525 113.6296,83.069224 C 116.49939,98.027794 114.01067,94.83463 121.8528,103.8764 C 129.38841,112.56476 133.9384,104.12558 128.08249,97.895894 C 121.0616,90.436208 124.48143,92.281104 125.46602,90.171074 L 137.42703,84.938132 z "
       transform="translate(0,804.33069)"
       style="opacity:1;color:#000000;fill:#dcbc8c;fill-opacity:1;fill-rule:evenodd;stroke:#000000;stroke-width:1px;stroke-linecap:butt;stroke-linejoin:miter;marker:none;marker-start:none;marker-mid:none;marker-end:none;stroke-miterlimit:4;stroke-dasharray:none;stroke-dashoffset:0;stroke-opacity:1;visibility:visible;display:inline;overflow:visible;enable-background:accumulate"
       id="path7982" />
    <path
       d="M 183.71875,144.5 L 157.9375,183.78125 L 202.6875,223.90625 C 215.80391,211.57212 224.99898,195.13778 227.6875,174.625 L 183.71875,144.5 z "
       transform="translate(1.0019939e-5,804.33069)"
       style="opacity:1;color:#000000;fill:#2163c5;fill-opacity:1;fill-rule:evenodd;stroke:#000000;stroke-width:1.00000012px;stroke-linecap:butt;stroke-linejoin:miter;marker:none;marker-start:none;marker-mid:none;marker-end:none;stroke-miterlimit:4;stroke-dasharray:none;stroke-dashoffset:0;stroke-opacity:1;visibility:visible;display:inline;overflow:visible;enable-background:accumulate"
       id="path8018" />
    <path
       d="M 167.30304,133.28621 C 154.08786,120.07103 161.96125,107.36259 153.1073,98.538936 C 146.44736,91.902205 138.99341,83.230711 134.79478,83.28232 C 131.09062,83.327851 123.42347,82.225106 122.36625,81.344094 C 121.30904,80.463083 118.26199,80.888473 119.4954,84.588722 C 120.72882,88.288971 128.06735,91.914491 133.73757,93.14965 C 135.1081,96.264496 139.46835,103.27508 141.66667,104.95521 C 135.06319,108.19465 132.79242,118.84282 134.66133,125.1971"
       transform="translate(0,804.33069)"
       style="opacity:1;color:#000000;fill:#dcbc8c;fill-opacity:1;fill-rule:evenodd;stroke:#000000;stroke-width:1px;stroke-linecap:round;stroke-linejoin:miter;marker:none;marker-start:none;marker-mid:none;marker-end:none;stroke-miterlimit:4;stroke-dasharray:none;stroke-dashoffset:0;stroke-opacity:1;visibility:visible;display:inline;overflow:visible;enable-background:accumulate"
       id="path7980" />
    <path
       d="M 167.85762,934.08373 L 185.54994,948.28743 C 179.25234,964.27045 159.45436,990.38256 156.58156,989.46098 L 139.01383,973.13918 C 141.88663,974.06076 161.56002,950.06675 167.85762,934.08373 z "
       style="opacity:1;color:#000000;fill:#2163c5;fill-opacity:1;fill-rule:evenodd;stroke:#000000;stroke-width:1.00000012px;stroke-linecap:butt;stroke-linejoin:round;marker:none;marker-start:none;marker-mid:none;marker-end:none;stroke-miterlimit:4;stroke-dasharray:none;stroke-dashoffset:0;stroke-opacity:1;visibility:visible;display:inline;overflow:visible;enable-background:accumulate"
       id="path8011" />
  </g>
</svg>

<svg xmlns="http://www.w3.org/2000/svg" version="1.0" width="215.651" height="252.601"><g transform="translate(-17.705 -804.536)"><path d="m18.705 805.536 3.884 163.182c2.775 116.559 203.107 116.559 205.882 0l3.884-163.182H18.705z" style="fill:#fcdc27;fill-opacity:1;fill-rule:evenodd;stroke:#000;stroke-width:2;stroke-linecap:butt;stroke-miterlimit:4;stroke-dashoffset:0;stroke-opacity:1"/><path d="m133.665 853.2-5.11-5.11 6.52-6.519-7.577-7.577-14.977 14.977 16.387 16.387 8.458-8.457 5.638 5.638-8.458 8.458 7.577 7.576 34.183-34.183-7.576-7.576-8.458 8.457-5.639-5.638 8.458-8.458-16.387-16.387-14.977 14.977 7.577 7.577 6.52-6.52 5.11 5.11-17.269 17.268z" style="fill:#2163c5;fill-opacity:1;fill-rule:evenodd;stroke:#000;stroke-width:1px;stroke-linecap:butt;stroke-linejoin:miter;stroke-opacity:1"/><path d="M416.891 1.086a7.6 4.735 0 1 1-15.2 0 7.6 4.735 0 1 1 15.2 0z" transform="rotate(45 -704.066 162.044)" style="opacity:1;color:#000;fill:#2163c5;fill-opacity:1;fill-rule:evenodd;stroke:#000;stroke-width:.99921256;stroke-linecap:butt;stroke-linejoin:miter;marker:none;marker-start:none;marker-mid:none;marker-end:none;stroke-miterlimit:4;stroke-dasharray:none;stroke-dashoffset:0;stroke-opacity:1;visibility:visible;display:inline;overflow:visible;enable-background:accumulate"/><path d="M40.454 935.981H96.52v56.068H40.454V935.98zm41.932 14.113c-3.258-3.258-8.501-3.298-11.711-.089a8.081 8.081 0 0 0-2.188 4.088 8.073 8.073 0 0 0-2.187-4.088c-3.21-3.21-8.453-3.17-11.712.089-3.258 3.258-3.32 8.524-.11 11.733a8.081 8.081 0 0 0 4.088 2.188 8.073 8.073 0 0 0-4.088 2.188c-3.21 3.21-3.17 8.453.088 11.711 3.259 3.258 8.524 3.32 11.734.11a8.08 8.08 0 0 0 2.187-4.087 8.081 8.081 0 0 0 2.188 4.088c3.21 3.21 8.475 3.147 11.734-.11 3.258-3.26 3.298-8.503.088-11.712a8.073 8.073 0 0 0-4.088-2.188 8.081 8.081 0 0 0 4.088-2.188c3.21-3.21 3.148-8.475-.11-11.733z" style="color:#000;fill:#2163c5;fill-opacity:1;fill-rule:evenodd;stroke:#000;stroke-width:1.00000012px;stroke-linecap:butt;stroke-linejoin:miter;marker:none;marker-start:none;marker-mid:none;marker-end:none;stroke-miterlimit:4;stroke-dashoffset:0;stroke-opacity:1;visibility:visible;display:inline;overflow:visible;enable-background:accumulate"/><rect width="25.666" height="9.22" rx="4.61" ry="4.61" x="717.256" y="591.269" transform="rotate(45)" style="opacity:1;color:#000;fill:#2163c5;fill-opacity:1;fill-rule:evenodd;stroke:#000;stroke-width:1.00000012px;stroke-linecap:butt;stroke-linejoin:miter;marker:none;marker-start:none;marker-mid:none;marker-end:none;stroke-miterlimit:4;stroke-dasharray:none;stroke-dashoffset:0;stroke-opacity:1;visibility:visible;display:inline;overflow:visible;enable-background:accumulate"/><path style="opacity:1;color:#000;fill:none;fill-opacity:1;fill-rule:evenodd;stroke:#000;stroke-width:1.00000012px;stroke-linecap:butt;stroke-linejoin:miter;marker:none;marker-start:none;marker-mid:none;marker-end:none;stroke-miterlimit:4;stroke-dasharray:none;stroke-dashoffset:0;stroke-opacity:1;visibility:visible;display:inline;overflow:visible;enable-background:accumulate" d="M46.434 941.962H90.54v44.106H46.434z"/><path d="M120.856 227.349a9.22 4.984 0 1 1-18.44 0 9.22 4.984 0 1 1 18.44 0z" transform="rotate(-45 967.337 659.12) scale(1.04054 1.225)" style="color:#000;fill:#2163c5;fill-opacity:1;fill-rule:evenodd;stroke:#000;stroke-width:.88503486;stroke-linecap:butt;stroke-linejoin:miter;marker:none;marker-start:none;marker-mid:none;marker-end:none;stroke-miterlimit:4;stroke-dasharray:none;stroke-dashoffset:0;stroke-opacity:1;visibility:visible;display:inline;overflow:visible;enable-background:accumulate"/><path d="M120.856 227.349a9.22 4.984 0 1 1-18.44 0 9.22 4.984 0 1 1 18.44 0z" transform="rotate(-45 872.286 698.492) scale(1.04054 1.225)" style="color:#000;fill:#2163c5;fill-opacity:1;fill-rule:evenodd;stroke:#000;stroke-width:.88503486;stroke-linecap:butt;stroke-linejoin:miter;marker:none;marker-start:none;marker-mid:none;marker-end:none;stroke-miterlimit:4;stroke-dasharray:none;stroke-dashoffset:0;stroke-opacity:1;visibility:visible;display:inline;overflow:visible;enable-background:accumulate"/><path d="M120.856 227.349a9.22 4.984 0 1 1-18.44 0 9.22 4.984 0 1 1 18.44 0z" transform="rotate(45 -782.688 544.024) scale(1.04054 1.225)" style="color:#000;fill:#2163c5;fill-opacity:1;fill-rule:evenodd;stroke:#000;stroke-width:.88503486;stroke-linecap:butt;stroke-linejoin:miter;marker:none;marker-start:none;marker-mid:none;marker-end:none;stroke-miterlimit:4;stroke-dasharray:none;stroke-dashoffset:0;stroke-opacity:1;visibility:visible;display:inline;overflow:visible;enable-background:accumulate"/><path d="M167.858 934.084c-8.54 9.38-31.717 38.134-28.844 39.055 2.873.922 22.546-23.072 28.844-39.055z" style="opacity:1;color:#000;fill:#2163c5;fill-opacity:1;fill-rule:evenodd;stroke:#000;stroke-width:1.00000012px;stroke-linecap:butt;stroke-linejoin:round;marker:none;marker-start:none;marker-mid:none;marker-end:none;stroke-miterlimit:4;stroke-dasharray:none;stroke-dashoffset:0;stroke-opacity:1;visibility:visible;display:inline;overflow:visible;enable-background:accumulate"/><path d="M152.254 161.813c-27.842-22.712-47.108-25.61-58.155-52.84-1.43-3.525 4.4-7.47 7.002-7.345 13.066.625 36.7-7.844 36.7-7.844l29.502 39.502-15.05 28.527z" transform="translate(0 804.33)" style="fill:#dcbc8c;fill-opacity:1;fill-rule:evenodd;stroke:#000;stroke-width:1px;stroke-linecap:butt;stroke-linejoin:miter;stroke-opacity:1"/><path transform="rotate(45)" style="opacity:1;color:#000;fill:#2163c5;fill-opacity:1;fill-rule:evenodd;stroke:#000;stroke-width:.99921256;stroke-linecap:butt;stroke-linejoin:miter;marker:none;marker-start:none;marker-mid:none;marker-end:none;stroke-miterlimit:4;stroke-dasharray:none;stroke-dashoffset:0;stroke-opacity:1;visibility:visible;display:inline;overflow:visible;enable-background:accumulate" d="M721.742 455.462h16.696v135.807h-16.696z"/><path d="M101.295 905.84c-2.866-.997-10.014 4.69-6.312 8.004 6.115 5.475 10.303 7.98 14.909 10.934 2.414 1.549 6.105.374 4.859-3.862l-13.456-15.076z" style="opacity:1;color:#000;fill:#dcbc8c;fill-opacity:1;fill-rule:evenodd;stroke:#000;stroke-width:1px;stroke-linecap:butt;stroke-linejoin:miter;marker:none;marker-start:none;marker-mid:none;marker-end:none;stroke-miterlimit:4;stroke-dasharray:none;stroke-dashoffset:0;stroke-opacity:1;visibility:visible;display:inline;overflow:visible;enable-background:accumulate"/><path d="M106.528 896.744c-3.987-1.993-8.692 4.742-5.856 8.597 5.921 8.051 5.743 9.62 14.577 16.322 2.643 2.006 8.846.25 4.735-5.108l-13.456-19.81z" style="opacity:1;color:#000;fill:#dcbc8c;fill-opacity:1;fill-rule:evenodd;stroke:#000;stroke-width:1px;stroke-linecap:butt;stroke-linejoin:miter;marker:none;marker-start:none;marker-mid:none;marker-end:none;stroke-miterlimit:4;stroke-dasharray:none;stroke-dashoffset:0;stroke-opacity:1;visibility:visible;display:inline;overflow:visible;enable-background:accumulate"/><path d="M114.003 84.564c-3.488-1.62-9.301 3.885-7.849 7.6 4.236 10.84 6.117 14.478 14.951 21.182 2.643 2.005 8.223-1.745 4.112-7.102l-11.214-21.68z" transform="translate(0 804.33)" style="opacity:1;color:#000;fill:#dcbc8c;fill-opacity:1;fill-rule:evenodd;stroke:#000;stroke-width:1px;stroke-linecap:butt;stroke-linejoin:miter;marker:none;marker-start:none;marker-mid:none;marker-end:none;stroke-miterlimit:4;stroke-dasharray:none;stroke-dashoffset:0;stroke-opacity:1;visibility:visible;display:inline;overflow:visible;enable-background:accumulate"/><path d="M137.427 84.938c-15.045-13.705-25.08-8.55-23.797-1.869 2.87 14.959.38 11.766 8.223 20.807 7.535 8.689 12.085.25 6.23-5.98-7.021-7.46-3.602-5.615-2.617-7.725l11.961-5.233z" transform="translate(0 804.33)" style="opacity:1;color:#000;fill:#dcbc8c;fill-opacity:1;fill-rule:evenodd;stroke:#000;stroke-width:1px;stroke-linecap:butt;stroke-linejoin:miter;marker:none;marker-start:none;marker-mid:none;marker-end:none;stroke-miterlimit:4;stroke-dasharray:none;stroke-dashoffset:0;stroke-opacity:1;visibility:visible;display:inline;overflow:visible;enable-background:accumulate"/><path d="m183.719 144.5-25.781 39.281 44.75 40.125c13.116-12.334 22.311-28.768 25-49.281l-43.97-30.125z" transform="translate(0 804.33)" style="opacity:1;color:#000;fill:#2163c5;fill-opacity:1;fill-rule:evenodd;stroke:#000;stroke-width:1.00000012px;stroke-linecap:butt;stroke-linejoin:miter;marker:none;marker-start:none;marker-mid:none;marker-end:none;stroke-miterlimit:4;stroke-dasharray:none;stroke-dashoffset:0;stroke-opacity:1;visibility:visible;display:inline;overflow:visible;enable-background:accumulate"/><path d="M167.303 133.286c-13.215-13.215-5.342-25.923-14.196-34.747-6.66-6.637-14.114-15.308-18.312-15.257-3.704.046-11.372-1.057-12.429-1.938-1.057-.88-4.104-.456-2.87 3.245 1.233 3.7 8.571 7.325 14.242 8.56 1.37 3.115 5.73 10.126 7.929 11.806-6.604 3.24-8.875 13.888-7.006 20.242" transform="translate(0 804.33)" style="opacity:1;color:#000;fill:#dcbc8c;fill-opacity:1;fill-rule:evenodd;stroke:#000;stroke-width:1px;stroke-linecap:round;stroke-linejoin:miter;marker:none;marker-start:none;marker-mid:none;marker-end:none;stroke-miterlimit:4;stroke-dasharray:none;stroke-dashoffset:0;stroke-opacity:1;visibility:visible;display:inline;overflow:visible;enable-background:accumulate"/><path d="m167.858 934.084 17.692 14.203c-6.298 15.983-26.096 42.096-28.968 41.174l-17.568-16.322c2.873.922 22.546-23.072 28.844-39.055z" style="opacity:1;color:#000;fill:#2163c5;fill-opacity:1;fill-rule:evenodd;stroke:#000;stroke-width:1.00000012px;stroke-linecap:butt;stroke-linejoin:round;marker:none;marker-start:none;marker-mid:none;marker-end:none;stroke-miterlimit:4;stroke-dasharray:none;stroke-dashoffset:0;stroke-opacity:1;visibility:visible;display:inline;overflow:visible;enable-background:accumulate"/></g></svg>
